Yaru++/apps/16/emoji-activities.svg

<svg height="16" width="16" xmlns="http://www.w3.org/2000/svg"><path d="m8 0c-4.412 0-8 3.588-8 8s3.588 8 8 8 8-3.588 8-8-3.588-8-8-8zm0 1c.0230882 0 .0453246.0036843.0683594.0039062.3391766.0032679.6702207.0362756.9960937.0859376 3.3635169.512589 5.9355469 3.4012075 5.9355469 6.9101562 0 .3092675-.025757.6115965-.064453.9101562-.353343-.0538482-.695488-.1398848-1.029297-.2441406l.359375-.9296875-.931641-.3613281-.359375.9257812c-.801186-.3835375-1.514991-.9150024-2.111328-1.5585937l.763672-.6152344-.626953-.7773437-.763672.6152344c-.4934937-.7144578-.8529259-1.5256765-1.0527342-2.4003907l.9628902-.1484375-.1523434-.9882812-.96875.1503906c-.0155698-.1908019-.0253906-.3831933-.0253906-.578125 0-.3092675.0257567-.6115965.0644531-.9101562-.325873-.049662-.6569171-.0826696-.9960937-.0859376-.0408922.32716-.0683594.6580136-.0683594.9960938 0 .2461493.0113264.4899934.0332031.7304688l-1.0039062.15625.1523437.9882812 1.0117188-.15625c.2313316 1.0495521.6653849 2.0227149 1.265625 2.8730469l-.7949219.6386719.6269531.7773437.7949224-.640625c.707852.7769169 1.56438 1.4157633 2.527343 1.8671875l-.363281.9375.931641.361328.363281-.9355468c.385731.1247559.780795.2276219 1.189453.2929688.087887-.314607.155705-.6377933.199219-.96875-.043473.3310034-.111324.6541141-.199219.96875-.823869 2.949198-3.518785 5.109375-6.734375 5.109375-.0567014 0-.1115939-.006478-.1679688-.007812.0696192-.559024.0650237-1.133289.0136719-1.712891l1.0234375-.158203-.1542968-.988282-1.0078126.15625c-.2331169-1.060496-.6744859-2.025999-1.2695312-2.8691401l.796875-.640625-.6269531-.7792969-.8046875.6464844c-.7121923-.7798649-1.5671992-1.4108424-2.5234375-1.859375l.3691406-.9511719-.9335937-.3613281-.3613282.9355468c-.3565723-.1156963-.7200765-.2143805-1.09375-.2792968-.0875319.3172421-.1548652.6428115-.1972656.9765625.3177443.0533015.6260724.1372195.9296875.2324219l-.3613281.9316406.9335937.3613281.3574219-.9238281c.7960398.3817391 1.5074628.9129083 2.1074219 1.5605468l-.7597657.6113282.6269532.7792966.7617187-.613281c.4876752.707612.8390072 1.516949 1.0410157 2.398437l-.9492188.148438.1542969.988281.953125-.148437c.0391543.49517.0409236.986165-.0195313 1.46289-3.3156326-.553134-5.8378906-3.42145-5.8378906-6.896484 0-.3031896.0252867-.5996566.0625-.8925781.0424004-.333751.1097337-.6593204.1972656-.9765625.8167509-2.9601525 3.5168742-5.1308594 6.7402344-5.1308594zm-1.1542969 13.896484c.3190683.052896.6443212.087356.9765625.095704-.3322795-.00832-.6574614-.04283-.9765625-.095704z" fill="#808080"/></svg>

<svg xmlns="http://www.w3.org/2000/svg" width="16" height="16" version="1.1">
 <path d="M 8 0 C 3.588 0 0 3.588 0 8 C 0 12.412 3.588 16 8 16 C 12.412 16 16 12.412 16 8 C 16 3.588 12.412 0 8 0 z M 8 1 C 8.0230882 1 8.0453246 1.0036843 8.0683594 1.0039062 C 8.407536 1.0071741 8.7385801 1.0401818 9.0644531 1.0898438 C 12.42797 1.6024328 15 4.4910513 15 8 C 15 8.3092675 14.974243 8.6115965 14.935547 8.9101562 C 14.582204 8.856308 14.240059 8.7702714 13.90625 8.6660156 L 14.265625 7.7363281 L 13.333984 7.375 L 12.974609 8.3007812 C 12.173423 7.9172437 11.459618 7.3857788 10.863281 6.7421875 L 11.626953 6.1269531 L 11 5.3496094 L 10.236328 5.9648438 C 9.7428343 5.250386 9.3834021 4.4391673 9.1835938 3.5644531 L 10.146484 3.4160156 L 9.9941406 2.4277344 L 9.0253906 2.578125 C 9.0098208 2.3873231 9 2.1949317 9 2 C 9 1.6907325 9.0257567 1.3884035 9.0644531 1.0898438 C 8.7385801 1.0401818 8.407536 1.0071742 8.0683594 1.0039062 C 8.0274672 1.3310662 8 1.6619198 8 2 C 8 2.2461493 8.0113264 2.4899934 8.0332031 2.7304688 L 7.0292969 2.8867188 L 7.1816406 3.875 L 8.1933594 3.71875 C 8.424691 4.7683021 8.8587443 5.7414649 9.4589844 6.5917969 L 8.6640625 7.2304688 L 9.2910156 8.0078125 L 10.085938 7.3671875 C 10.79379 8.1441044 11.650318 8.7829508 12.613281 9.234375 L 12.25 10.171875 L 13.181641 10.533203 L 13.544922 9.5976562 C 13.930653 9.7224121 14.325717 9.8252781 14.734375 9.890625 C 14.822262 9.576018 14.89008 9.2528317 14.933594 8.921875 C 14.890121 9.2528784 14.82227 9.5759891 14.734375 9.890625 C 13.910506 12.839823 11.21559 15 8 15 C 7.9432986 15 7.8884061 14.993522 7.8320312 14.992188 C 7.9016504 14.433164 7.8970549 13.858899 7.8457031 13.279297 L 8.8691406 13.121094 L 8.7148438 12.132812 L 7.7070312 12.289062 C 7.4739143 11.228566 7.0325453 10.263063 6.4375 9.4199219 L 7.234375 8.7792969 L 6.6074219 8 L 5.8027344 8.6464844 C 5.0905421 7.8666195 4.2355352 7.235642 3.2792969 6.7871094 L 3.6484375 5.8359375 L 2.7148438 5.4746094 L 2.3535156 6.4101562 C 1.9969433 6.2944599 1.6334391 6.1957757 1.2597656 6.1308594 C 1.1722337 6.4481015 1.1049004 6.7736709 1.0625 7.1074219 C 1.3802443 7.1607234 1.6885724 7.2446414 1.9921875 7.3398438 L 1.6308594 8.2714844 L 2.5644531 8.6328125 L 2.921875 7.7089844 C 3.7179148 8.0907235 4.4293378 8.6218927 5.0292969 9.2695312 L 4.2695312 9.8808594 L 4.8964844 10.660156 L 5.6582031 10.046875 C 6.1458783 10.754487 6.4972103 11.563824 6.6992188 12.445312 L 5.75 12.59375 L 5.9042969 13.582031 L 6.8574219 13.433594 C 6.8965762 13.928764 6.8983455 14.419759 6.8378906 14.896484 C 3.522258 14.34335 1 11.475034 1 8 C 1 7.6968104 1.0252867 7.4003434 1.0625 7.1074219 C 1.1049004 6.7736709 1.1722337 6.4481015 1.2597656 6.1308594 C 2.0765165 3.1707069 4.7766398 1 8 1 z M 6.8457031 14.896484 C 7.1647714 14.94938 7.4900243 14.98384 7.8222656 14.992188 C 7.4899861 14.983868 7.1648042 14.949358 6.8457031 14.896484 z" style="font-variation-settings:normal;fill:#808080"/>
</svg>
